X: 448
T: Bu Son Şarkımda Sen Varsın
C: Muzaffer İlkar
O: Turkey
F: http://compmusic.upf.edu/node/140
N: mahur--sarki--duyek--bu_son_sarkimda--muzaffer_ilkar
N: makam= mahur
N: form= sarki
N: usul= duyek = 8/4
M: 8/4
L: 1/16
K: C ^9/8f   
Q: 1/4=132
%%MIDI tuningsystem comma53
d2 g4 fg ba gf e4  | de f4 ef ag fe d4  | \
w:  ARANAĞME  |   | 
d2 b4 ab c'b ag f4  | 
w:   | 
b2 ab c'2 ba ag gf g4  | z2 a4 g2 ag =fe d4  | \
w:   |   | 
z2 =f4 e2 fe dc B4  | 
w:   | 
z2 g4 fe dc BA G4  | c2 B2 A2 G2 F4 B2 AG  | \
w:   |   | 
G6 D2 E2 F2 G4  | 
w:   | 
d2 g4 fg ba gf e4  | de f4 ef ag fe d4  | \
w:  ARANAĞME  |   | 
d2 b4 ab c'b ag f4  | 
w:   | 
b2 ab c'2 ba ag gf g4  | z2 a4 g2 ag =fe d4  | \
w:   |   | 
z2 =f4 e2 fe dc B4  | 
w:   | 
z2 g4 fe dc BA G4  | c2 B2 A2 G2 F4 B2 AG  | \
w:   |   | 
G6 D2 E2 F2 G4  | 
w:   | 
d2 g6 f2 g2 a2 g2  | f2 g2 e2 g2 f3e d4  | \
w:  Bu  son  şar *  kım  |  da  sen  *  *  var *  sın    | 
z2 b4 ab c'3/2b/ a3/2g/ f3/2e/ d2  | 
w:  SAZ  | 
b4 c'2 b2 a2 g2 f2 g2  | a8 d2 f2 a4  | \
w:  İlk  şar *  kım *  da  yi  |  ne  SAZ  | 
z2 b4 a2 b2 ag g4  | z2 a4 g2 a2 gf f4  | 
w:  sen  *  var *  *  dın    |  sen  *  var *  *  dın   | 
z2 c'2 b2 a2 b2 ag a2 gf  | g6 fe d2 ef g4  | \
w:  sen  *  *  var  |  dın   SAZ  | 
z2 c'4 b2 (3c'bc' (3bab a4  | 
w:   | 
z2 b4 a2 (3bab (3aga g4  | z2 c'2 b2 a2 (3bag (3agf (3gfe d2  | 
w:   |   | 
d2 g4 fe dc BA G4  | d2 g6 f2 g2 a2 g2  | \
w:   |  Bu  son  şar *  kım  | 
f2 g2 e2 g2 f3e d4  | 
w:  da  sen  *  *  var *  sın    | 
z2 b4 ab c'3/2b/ a3/2g/ f3/2e/ d2  | \
w:  SAZ  | 
b4 c'2 b2 a2 g2 f2 g2  | a8 d2 f2 a4  | 
w:  İlk  şar *  kım *  da  yi  |  ne  SAZ  | 
z2 b4 a2 b2 ag g4  | z2 a4 g2 a2 gf f4  | \
w:  sen  *  var *  *  dın    |  sen  *  var *  *  dın   | 
z2 c'2 b2 a2 b2 ag a2 gf  | 
w:  sen  *  *  var  | 
g6 fe d2 ef g4  | z2 c'4 b2 (3c'bc' (3bab a4  | \
w:  dın   SAZ  |   | 
z2 b4 a2 (3bab (3aga g4  | 
w:   | 
z2 c'2 b2 a2 (3bag (3agf (3gfe d2  | \
w:   | 
d2 g4 fe de fa g4  | 
w:   | 
f2 g6 c'2 b2 a2 g2  | a2 g2 =f2 e2 f2 eg f4  | \
w:  Ba na  yıl *  lar  |  ca  ruh  *  *  ver *  *  din   | 
z2 a4 ag ag =fe f4  | 
w:  SAZ  | 
a2 g2 =f2 e2 d2 c2 B2 c2  | d8 G2 B2 d4  | \
w:  il *  hâ *  mın *  la  be  |  ni  SAZ  | 
e2 e4 d2 ed cB c4  | d2 d4 c2 dc B^A B4  | 
w:  ya şat *  *  *  *  *  tın   |  ya şat *  *  *  *  *  tın   | 
c2 B2 A2 G2 F4 B2 AG  | G6 d2 e2 f2 g4  | \
w:  ya şat  |  tın   SAZ  | 
z2 c'4 b2 (3c'bc' (3bab a4  | 
w:   | 
z2 b4 a2 (3bab (3aga g4  | z2 c'2 b2 a2 (3bag (3agf (3gfe d2  | 
w:   |   | 
d2 g4 fe de fa g4  | f2 g6 c'2 b2 a2 g2  | \
w:   |  Ba na  yıl *  lar  | 
a2 g2 =f2 e2 f2 eg f4  | 
w:  ca  ruh  *  *  ver *  *  din   | 
z2 a4 ag ag =fe f4  | a2 g2 =f2 e2 d2 c2 B2 c2  | \
w:  SAZ  |  il *  hâ *  mın *  la  be  | 
d8 G2 B2 d4  | 
w:  ni  SAZ  | 
e2 e4 d2 ed cB c4  | d2 d4 c2 dc B^A B4  | \
w:  ya şat *  *  *  *  *  tın   |  ya şat *  *  *  *  *  tın   | 
c2 B2 A2 G2 F4 B2 AG  | 
w:  ya şat  | 
G6 d2 e2 f2 g4  | z2 c'4 b2 (3c'bc' (3bab a4  | \
w:  tın   SAZ  |   | 
z2 b4 a2 (3bab (3aga g4  | 
w:   | 
z2 c'2 b2 a2 (3bag (3agf (3gfe d2  | \
w:   | 
d2 g4 ^a_1/4b c'b ac' b4  | 
w:   | 
^a2 _1/4b6 c'3b =a4  | ^g2 a2 b2 {c'}ba a8  | \
w:  Sen din  gön lü mün   |  var *  *  *  lı *  ğı   | 
z2 c'4 ba (3a^ga (3bba a4  | 
w:  SAZ  | 
z2 c'2 _1/4b2 ^a2 g2 f2 g2 a2  | _1/4b8 g2 ^a2 b4  | \
w:  her  *  ne fes *  te  yi  |  ne  SAZ  | 
z2 c'4 b2 c'2 _1/4ba a4  | z2 _1/4b4 a2 b2 ag g4  | 
w:  sen  *  var *  *  dın   |  sen  *  var *  *  dın   | 
z2 d'2 c'2 _1/4b2 ^a2 b2 c'2 {d'}c'b  | \
w:  sen  *  *  var  | 
_1/4b6 b^a gf ga b4  | ^a2 _1/4b6 c'3b =a4  | 
w:  dın   SAZ  |  Sen din  gön lü mün   | 
^g2 a2 b2 {c'}ba a8  | z2 c'4 ba (3a^ga (3bba a4  | \
w:  var *  *  *  lı *  ğı   |  SAZ  | 
z2 c'2 _1/4b2 ^a2 g2 f2 g2 a2  | 
w:  her  *  ne fes *  te  yi  | 
_1/4b8 g2 ^a2 b4  | z2 c'4 b2 c'2 _1/4ba a4  | \
w:  ne  SAZ  |  sen  *  var *  *  dın   | 
z2 _1/4b4 a2 b2 ag g4  | z2 c'2 b2 a2 g4 f2 {b}ag  | 
w:  sen  *  var *  *  dın   |  sen  *  *  var  | 
g6 fe d2 ef g4  | z2 c'4 b2 (3c'bc' (3bab a4  | \
w:  dın   SAZ  |  SAZ  | 
z2 b4 a2 (3bab (3aga g4  | 
w:   | 
z2 c'2 b2 a2 (3bag (3agf (3gfe d2  | \
w:   | 
d2 g4 fe de fa g4  | 
w:   | 
f2 g6 c'2 b2 a2 g2  | a2 g2 =f2 e2 f2 eg f4  | \
w:  Ba na  yıl *  lar  |  ca  ruh  *  *  ver *  *  din   | 
z2 a4 ag ag =fe f4  | 
w:  SAZ  | 
a2 g2 =f2 e2 d2 c2 B2 c2  | d8 G2 B2 d4  | \
w:  il *  hâ *  mın *  la  be  |  ni  SAZ  | 
e2 e4 d2 ed cB c4  | d2 d4 c2 dc B^A B4  | 
w:  ya şat *  *  *  *  *  tın   |  ya şat *  *  *  *  *  tın   | 
c2 B2 A2 G2 F4 B2 AG  | G6 |
w:  ya şat  |  tın    | 


